X: 22400
T: Laden Sack
R: waltz
M: 3/4
K: Gmajor
|:d2|d2B2c2|d2efg2|g2fga2|ab ag fe|
d2B2c2|d2efg2|g2fg ab|g4:|
|:bg|gff2c'a|agg2Bd|dcc2Ac|cBB2bg|
gff2c'a|ag gf ge|ed Bd cA|G4:|

